Font-Source/Egyptian2/svg-my/1350E.svg

<?xml version="1.0" encoding="UTF-8" standalone="no"?>
<svg
   width="700"
   height="1000"
   version="1.1"
   id="svg1"
   sodipodi:docname="1350E.svg"
   inkscape:version="1.4.2 (f4327f4, 2025-05-13)"
   xmlns:inkscape="http://www.inkscape.org/namespaces/inkscape"
   xmlns:sodipodi="http://sodipodi.sourceforge.net/DTD/sodipodi-0.dtd"
   xmlns="http://www.w3.org/2000/svg"
   xmlns:svg="http://www.w3.org/2000/svg">
  <defs
     id="defs1" />
  <sodipodi:namedview
     id="namedview1"
     pagecolor="#ffffff"
     bordercolor="#666666"
     borderopacity="1.0"
     inkscape:showpageshadow="2"
     inkscape:pageopacity="0.0"
     inkscape:pagecheckerboard="0"
     inkscape:deskcolor="#d1d1d1"
     inkscape:zoom="0.75499997"
     inkscape:cx="26.490067"
     inkscape:cy="40.397352"
     inkscape:window-width="1680"
     inkscape:window-height="998"
     inkscape:window-x="-8"
     inkscape:window-y="-8"
     inkscape:window-maximized="1"
     inkscape:current-layer="svg1"
     showguides="true">
    <sodipodi:guide
       position="72.36148,800.93768"
       orientation="0,-1"
       id="guide5"
       inkscape:locked="false" />
  </sodipodi:namedview>
  <path
     style="fill:#000000;stroke:none;stroke-width:1"
     d="m 394.39467,3.1019583 c -12.27491,2.487675 -24.61855,6.4714002 -37.03032,11.9514907 -24.82358,10.960153 -36.40409,36.664773 -34.74348,77.113067 -4.01129,9.622104 -7.84166,22.782734 -11.4907,39.483024 -1.14577,9.61193 0.30345,14.62078 4.35031,15.02783 4.04688,0.40703 7.67535,1.27982 10.88271,2.61691 -6.50677,6.5531 -0.34253,8.69151 4.07203,7.57121 0.97043,1.44656 -6.79346,6.78096 1.54686,8.21 3.3732,0.57797 6.12494,4.36155 8.25672,11.34921 2.13178,6.98763 5.93427,9.96611 11.40879,8.9353 5.4745,-1.03076 13.85349,-3.33527 25.13425,-6.91507 l 8.14355,15.14053 c -16.80948,1.31029 -34.56967,10.88383 -53.77938,28.17164 -7.24347,6.51877 -17.62028,15.0495 -28.20815,26.80357 -31.60898,35.09056 -65.18858,80.67393 -91.57206,113.79195 -47.88746,-1.34607 -123.614375,-0.37016 -148.65549,2.38774 l -0.38868,34.97851 c 54.20089,7.50956 118.04134,7.33786 165.54616,4.42972 56.93824,-46.79417 86.92238,-77.80898 116.75461,-117.99721 40.77176,41.99504 75.08426,69.253 75.08426,143.61612 l -51.08165,258.53315 c -18.76455,109.8072 -33.01167,178.60989 -42.74143,206.40921 -10.42474,27.1043 -21.8915,42.56801 -34.4012,46.39039 -12.50967,3.82245 -33.7068,12.68353 -63.59102,26.58312 -20.84947,3.47493 -33.35815,9.90286 -37.52804,19.28516 -4.16988,9.38216 4.51654,13.37907 26.06098,11.9892 26.40932,0 46.04257,-1.38907 58.89974,-4.16912 12.85719,-2.78002 29.53742,-2.08529 50.03938,2.08456 20.50198,4.16983 30.40492,-2.43281 29.70996,-19.8073 3.47489,-34.74914 17.20011,-76.10138 41.17701,-124.05517 23.9769,-47.9538 34.74912,-83.91797 32.31664,-107.89487 -2.43242,-23.97686 5.38673,-43.26282 23.45628,-57.85747 l 78.18491,1.04229 c 15.98463,109.11225 25.71491,179.30614 29.1898,210.58031 1.38995,26.40935 -2.95422,44.13144 -13.03148,53.16622 -10.07724,9.03462 -30.05781,14.94069 -59.94203,17.72075 -17.37455,9.72971 -26.58291,17.20155 -27.62539,22.41398 -1.04251,5.21232 5.04017,7.81809 18.24487,7.81809 12.50962,0 27.79868,-0.52193 45.86828,-1.5644 18.06953,-1.04248 39.78658,-1.04248 65.15342,0 25.36686,1.04247 33.88062,-6.77473 25.54084,-23.45429 -8.3399,-51.42868 -9.20901,-101.46736 -2.6067,-150.11615 6.60231,-48.64873 2.26007,-94.1706 -13.02949,-136.56451 L 573.99193,529.84427 c 11.1198,-41.00397 9.90512,-78.70664 -3.64698,-113.10825 -1.77188,-37.43084 -20.66396,-90.99213 -22.10923,-169.39562 l 0.72802,-0.27579 c 13.27682,36.67533 36.49848,68.4892 64.35578,110.13201 -1.10382,25.60591 2.37575,54.8568 15.59258,91.21283 13.21708,36.35608 14.93281,62.90429 5.14609,79.64452 -9.78673,16.74023 -9.40336,38.88388 1.15025,66.43361 7.67566,-0.10018 10.41874,-5.62533 8.2307,-16.57735 -2.18806,-10.95206 -1.25858,-20.48247 2.78871,-28.58985 11.17426,18.30269 17.72745,34.96255 5.04969,68.65047 -5.56671,8.29621 -1.88347,17.43979 13.02421,14.36505 19.41708,-34.18657 19.51787,-49.27164 2.60352,-126.04226 -1.1895,-71.84608 -7.71507,-119.88145 -15.17585,-147.44105 -9.00609,-30.87065 -27.99169,-86.71821 -59.7346,-155.2882 -12.60508,-27.22908 -34.6493,-38.31877 -62.28841,-37.04078 -39.92528,6.547 -62.43024,6.16286 -67.51295,-1.15145 -5.08275,-7.31426 -9.57929,-15.85155 -13.4908,-25.61409 11.43137,-8.63709 21.07877,-21.4824 28.94053,-38.53475 7.86162,-17.052342 8.1261,-37.196904 0.79573,-60.432059 C 471.09821,14.690667 455.28995,1.1371881 431.01387,0.12771616 418.87582,-0.37702178 406.66958,0.61427971 394.39467,3.1019583 Z m -8.30965,18.6441087 c 9.22093,-2.160781 19.62637,-3.368209 31.21389,-3.620018 23.17511,-0.503667 38.00122,9.179595 44.47695,29.046556 5.9731,20.711578 3.93414,40.229496 -6.11437,58.553815 -10.04849,18.3243 -18.19953,25.05285 -24.45347,20.18685 -6.92762,-4.69505 -6.28946,-14.89574 1.9142,-30.600841 15.65471,-29.969533 -4.13516,-61.986462 -40.81116,-29.436105 -9.1194,-4.855854 -26.48415,-5.469538 -52.0922,-1.838883 1.6123,-28.082881 30.16872,-38.612924 45.86616,-42.291374 z m -49.10706,54.944386 c 20.88252,-5.299453 39.25707,-4.942071 55.12297,1.069751 1.2068,7.580859 4.06914,6.85447 8.58814,-2.17945 9.11555,-18.222949 29.21015,-15.718795 25.94055,6.859454 -1.563,10.793328 -5.02797,20.456282 -10.39157,28.987552 -5.36365,8.53127 -5.0431,15.44202 0.95954,20.73033 6.00261,5.28829 10.36063,10.45578 13.07548,15.50292 14.12787,38.71844 34.66549,54.65888 61.61064,47.82088 26.9452,-6.83799 31.91205,15.78877 32.26275,70.2472 0.34533,53.62523 14.8171,98.90265 17.99911,138.13642 l -98.4625,21.73089 c -2.77989,-81.31296 -35.56813,-109.551 -52.84226,-132.41373 -17.27417,-22.8627 -30.01158,-38.4506 -38.2162,-46.76516 -8.20465,-8.31455 0.15465,-15.63443 25.07892,-21.95959 24.25067,-6.15419 32.67404,-18.86902 25.27332,-38.1428 -7.40075,-19.27371 -18.33445,-24.92232 -32.80223,-16.94869 -14.46778,7.97363 -22.06258,4.88062 -22.78706,-9.27578 7.21864,-8.28501 9.05531,-13.05285 5.51114,-14.30446 -3.54419,-1.2516 -9.44315,-1.18782 -17.69765,0.18994 -0.35205,-4.21273 -4.91163,-6.64077 -13.67901,-7.28385 2.2916,-19.22391 5.52861,-33.3109 9.71081,-42.259352 6.55518,-5.248619 14.30146,-7.214424 23.23976,-5.897656 8.93828,1.316737 17.61965,1.623813 26.04514,0.919683 l -2.54901,-5.807081 c -4.71543,1.196651 -11.58529,0.968341 -20.60905,-0.68523 -9.02377,-1.653572 -16.81251,0.144906 -23.36771,5.393495 0.65329,-5.901869 1.64889,-10.45831 2.98598,-13.665686 z M 409.896,69.47963 c -9.83595,6.308426 -14.39479,24.140653 -10.13328,29.997322 -2.85528,2.875628 -4.19308,6.083598 -4.01195,9.622728 0.1811,3.53907 2.2949,5.51083 6.34176,5.91785 4.04684,0.40706 8.41664,-3.56835 13.10667,-11.92869 4.73537,-9.160738 12.11978,-24.666801 4.68001,-34.528693 -2.15096,-2.491508 -5.64864,-1.860504 -9.98321,0.919483 z m 3.54138,5.803082 c 5.72994,-1.647238 5.12847,8.394665 1.46586,16.050683 -2.3424,4.896505 -4.47835,8.485175 -6.4087,10.767585 -1.93033,2.28243 -2.22959,1.10324 -0.89756,-3.536857 1.33202,-4.6401 0.82103,-5.943631 -1.5316,-3.912586 -2.35262,2.031052 -3.3251,1.022721 -2.91807,-3.024107 1.11425,-11.077588 5.09624,-14.851606 10.29007,-16.344718 z m -68.43166,19.336612 c -3.47387,0.74713 -6.37635,2.355672 -8.70633,4.82912 l -4.52472,7.602216 1.53875,6.06347 3.52972,-3.04844 c 10.79842,2.99571 21.23966,0.346 31.32373,-7.94916 l 11.37162,-1.80847 -1.28238,-5.0532 -11.11475,2.820636 c -8.96729,-3.550043 -16.34582,-4.701422 -22.13564,-3.456172 z m -1.11937,5.056436 c -1.50802,2.53373 -0.91004,4.89011 1.79464,7.07179 -2.86547,0.0102 -5.39464,-0.0645 -7.58647,-0.22537 0.66345,-3.0364 2.59463,-5.31803 5.79183,-6.84642 z m 8.33843,-1.040765 11.38638,2.487025 c -3.87081,1.69933 -7.40481,3.31275 -10.602,4.84114 2.18168,-2.70471 1.92034,-5.14653 -0.78438,-7.328165 z m 49.07669,6.905415 c 4.55463,0.99518 5.82238,2.46497 3.80658,4.41059 -2.01576,1.94556 -3.57262,2.1605 -4.67364,0.64737 -1.101,-1.5131 -0.81191,-3.19782 0.86706,-5.05796 z m -64.32103,43.21011 c 2.86548,-0.0102 6.04733,-0.57202 9.50095,-1.09009 3.04938,-0.45742 3.27279,-0.26149 3.13685,0.0339 l -14.8994,4.85641 c -2.23528,0.56727 -3.90963,-2.23378 2.26164,-3.7999 z m 13.15052,0.96401 c -0.69552,3.18249 -5.95664,6.65024 -10.58625,9.14049 -3.09084,0.68579 -2.79852,-1.36369 -2.03577,-3.78466 z m 197.71702,277.29525 c 10.70842,31.47985 17.45752,61.48323 0.083,101.79221 l 23.97641,135.52224 h -172.008 l 42.74143,-211.6226 z"
     id="path1"
     sodipodi:nodetypes="ssccsccsssccssccccccccscscsscsscccscsssscscccccccscscccccscscccsssscscsccsccsssscssccssssscscccsccsccscsssssssssssssccccccccscccccccccssccscccccccccccccc" />
  <path
     d="m 62.71031,364.74036 c -26.37351,-6.5848 -53.755121,-12.29148 -80.781252,-6.33594 0.496337,7.54425 6.336486,12.99507 18.509766,13.41992 0.22328,32.1872 8.036317,46.40144 22.843746,43.01172 5.91966,-1.35513 36.45794,-13.34328 39.03906,-15.11719"
     style="fill:#000000;stroke:none;stroke-width:1"
     id="path1-9" />
  <path
     style="fill:#000000;stroke:none;stroke-width:1px;stroke-linecap:butt;stroke-linejoin:miter;stroke-opacity:1"
     d="M 78.750631,-2.328499e-6 90.980083,12.150416 C 48.426585,31.293407 14.599082,62.131127 -2.9695611,93.419494 7.6278598,129.32194 18.405961,148.83211 33.345966,177.3433 40.076424,145.60975 81.889643,105.72554 114.5749,87.472447 l 12.61204,18.134143 c -28.439358,16.68498 -69.022127,54.07831 -77.193501,111.23528 -1.514615,10.5944 -3.334467,23.48308 -4.422302,33.98694 22.925697,-14.10646 39.47681,-19.05362 72.013093,-21.54259 l 0.31722,15.26646 c -26.356729,2.00536 -53.510562,9.95663 -73.498495,27.91348 -4.740192,58.82863 1.838756,112.16708 13.563942,170.56626 l -31.659574,12.503 C 18.460713,400.41365 12.80611,358.59052 16.781327,306.60053 3.5111321,264.22237 -14.960222,231.62795 -33.80514,210.84871 l 10.7828,-13.33359 c 16.8408159,20.4775 29.0249816,33.61584 41.223977,62.86122 1.194446,-17.09931 3.003098,-29.57351 5.455615,-50.0379 C -13.007937,147.02871 -36.775997,84.929007 -39.348812,13.98603 -42.993695,15.027425 -19.963334,-2.328499e-6 -19.963334,-2.328499e-6 -17.528776,33.695206 -14.526184,49.710974 -9.4561981,70.701417 6.4801411,41.791508 38.653442,18.915891 78.750631,-2.328499e-6 Z"
     id="path1-2"
     sodipodi:nodetypes="cccccccccccccccccccccc" />
</svg>

<?xml version="1.0" encoding="UTF-8" standalone="no"?>
<svg
   width="700"
   height="1000"
   version="1.1"
   id="svg1"
   sodipodi:docname="1350E.svg"
   inkscape:version="1.4.2 (f4327f4, 2025-05-13)"
   xmlns:inkscape="http://www.inkscape.org/namespaces/inkscape"
   xmlns:sodipodi="http://sodipodi.sourceforge.net/DTD/sodipodi-0.dtd"
   xmlns="http://www.w3.org/2000/svg"
   xmlns:svg="http://www.w3.org/2000/svg">
  <defs
     id="defs1" />
  <sodipodi:namedview
     id="namedview1"
     pagecolor="#ffffff"
     bordercolor="#666666"
     borderopacity="1.0"
     inkscape:showpageshadow="2"
     inkscape:pageopacity="0.0"
     inkscape:pagecheckerboard="0"
     inkscape:deskcolor="#d1d1d1"
     inkscape:zoom="0.5338656"
     inkscape:cx="-1.8731306"
     inkscape:cy="300.63746"
     inkscape:window-width="1680"
     inkscape:window-height="998"
     inkscape:window-x="-8"
     inkscape:window-y="-8"
     inkscape:window-maximized="1"
     inkscape:current-layer="svg1"
     showguides="true">
    <sodipodi:guide
       position="72.36148,800.93768"
       orientation="0,-1"
       id="guide5"
       inkscape:locked="false" />
  </sodipodi:namedview>
  <path
     id="path1"
     style="fill:#000000;stroke:none;stroke-width:1"
     d="M -19.962891 0 C -19.962891 -5.9211895e-16 -42.994492 15.027723 -39.349609 13.986328 C -36.776794 84.929305 -13.006986 147.02816 23.658203 210.33789 C 21.205686 230.80228 19.395618 243.27764 18.201172 260.37695 C 6.0021765 231.13157 -6.1806685 217.99312 -23.021484 197.51562 L -33.804688 210.84961 C -14.959769 231.62885 3.5110551 264.22145 16.78125 306.59961 C 15.451197 323.99474 15.198662 340.25226 15.746094 356.25 C 4.4774798 355.46718 -6.8265647 355.9266 -18.070312 358.4043 C -17.573975 365.94855 -11.733827 371.39937 0.43945312 371.82422 C 0.6499838 402.17352 7.607513 416.54359 20.814453 415.24414 C 22.416013 428.06092 24.288548 441.35823 26.306641 455.53516 L 57.966797 443.0332 C 55.358293 430.04113 53.003787 417.29871 50.972656 404.69141 C 56.762789 402.35272 61.385293 400.3627 62.322266 399.71875 C 116.52316 407.22831 180.36237 407.05658 227.86719 404.14844 C 284.80543 357.35427 314.79082 326.34057 344.62305 286.15234 C 385.39481 328.14738 419.70703 355.40446 419.70703 429.76758 L 368.625 688.30078 C 349.86045 798.10798 335.61257 866.90966 325.88281 894.70898 C 315.45807 921.81328 303.99212 937.27723 291.48242 941.09961 C 278.97275 944.92206 257.77484 953.784 227.89062 967.68359 C 207.04116 971.15852 194.53317 977.58645 190.36328 986.96875 C 186.1934 996.35091 194.87939 1000.3469 216.42383 998.95703 C 242.83315 998.95703 262.46705 997.56911 275.32422 994.78906 C 288.18141 992.00904 304.86132 992.7032 325.36328 996.87305 C 345.86526 1001.0429 355.76918 994.4409 355.07422 977.06641 C 358.54911 942.31727 372.2731 900.96356 396.25 853.00977 C 420.2269 805.05597 430.99889 769.09213 428.56641 745.11523 C 426.13399 721.13837 433.95389 701.85246 452.02344 687.25781 L 530.20898 688.30078 C 546.19361 797.41303 555.92355 867.60669 559.39844 898.88086 C 560.78839 925.29021 556.44445 943.0121 546.36719 952.04688 C 536.28995 961.0815 516.30805 966.98752 486.42383 969.76758 C 469.04928 979.49729 459.84131 986.96921 458.79883 992.18164 C 457.75632 997.39396 463.84022 1000 477.04492 1000 C 489.55454 1000 504.84251 999.47802 522.91211 998.43555 C 540.98164 997.39307 562.69957 997.39307 588.06641 998.43555 C 613.43327 999.47802 621.9472 991.66003 613.60742 974.98047 C 605.26752 923.55179 604.39769 873.51402 611 824.86523 C 617.60231 776.2165 613.26026 730.69469 597.9707 688.30078 L 573.99219 529.84375 C 585.11199 488.83978 583.8978 451.13794 570.3457 416.73633 C 568.57382 379.30549 549.6816 325.74333 548.23633 247.33984 L 548.96289 247.06445 C 562.23971 283.73978 585.46301 315.55446 613.32031 357.19727 C 612.21649 382.80318 615.69528 412.05413 628.91211 448.41016 C 642.12919 484.76624 643.84531 511.31446 634.05859 528.05469 C 624.27186 544.79492 624.65537 566.93855 635.20898 594.48828 C 642.88464 594.3881 645.62749 588.86218 643.43945 577.91016 C 641.25139 566.9581 642.18123 557.42769 646.22852 549.32031 C 657.40278 567.623 663.9551 584.28278 651.27734 617.9707 C 645.71063 626.26691 649.3931 635.41068 664.30078 632.33594 C 683.71786 598.14937 683.81865 583.06359 666.9043 506.29297 C 665.7148 434.44689 659.1893 386.41312 651.72852 358.85352 C 642.72243 327.98287 623.73705 272.13444 591.99414 203.56445 C 579.38906 176.33537 557.34614 165.24545 529.70703 166.52344 C 489.78175 173.07044 467.27607 172.68736 462.19336 165.37305 C 457.11061 158.05879 452.61464 149.52035 448.70312 139.75781 C 460.1345 131.12072 469.78082 118.27501 477.64258 101.22266 C 485.5042 84.170314 485.76982 64.026171 478.43945 40.791016 C 471.09874 14.690422 455.28975 1.1364251 431.01367 0.12695312 C 418.87562 -0.37778481 406.66944 0.61388391 394.39453 3.1015625 C 382.11962 5.5892375 369.777 9.5726439 357.36523 15.052734 C 332.54165 26.012887 320.96048 51.717722 322.62109 92.166016 C 318.6098 101.78812 314.7799 114.9501 311.13086 131.65039 C 309.98509 141.26232 311.43361 146.27068 315.48047 146.67773 C 319.52735 147.08476 323.15592 147.95783 326.36328 149.29492 C 319.85651 155.84802 326.02099 157.98553 330.43555 156.86523 C 331.40598 158.31179 323.6421 163.64713 331.98242 165.07617 C 335.35562 165.65414 338.1065 169.43617 340.23828 176.42383 C 342.37006 183.41146 346.17392 186.39018 351.64844 185.35938 C 357.12294 184.32862 365.50049 182.02511 376.78125 178.44531 L 384.92578 193.58594 C 368.1163 194.89623 350.35619 204.47 331.14648 221.75781 C 323.90301 228.27658 313.52537 236.80648 302.9375 248.56055 C 271.32852 283.65111 237.74871 329.2355 211.36523 362.35352 C 163.47777 361.00745 87.752052 361.98233 62.710938 364.74023 C 56.939035 363.29914 51.11785 361.90019 45.263672 360.65625 C 42.525287 331.75497 41.954733 302.84311 44.402344 272.4668 C 64.390277 254.50995 91.545615 246.55809 117.90234 244.55273 L 117.58398 229.28711 C 85.047701 231.77608 68.496009 236.72167 45.570312 250.82812 C 46.658147 240.32426 48.479526 227.4362 49.994141 216.8418 C 58.165515 159.68483 98.748142 122.2924 127.1875 105.60742 L 114.57422 87.472656 C 81.888962 105.72575 40.076161 145.6102 33.345703 177.34375 C 18.405698 148.83256 7.6286709 129.32237 -2.96875 93.419922 C 14.599893 62.131555 48.426971 31.293382 90.980469 12.150391 L 78.75 0 C 38.652811 18.915893 6.4793079 41.791263 -9.4570312 70.701172 C -14.527017 49.710729 -17.528333 33.695208 -19.962891 0 z M 417.29883 18.126953 C 440.47394 17.623286 455.29966 27.304914 461.77539 47.171875 C 467.74849 67.883453 465.71062 87.402244 455.66211 105.72656 C 445.61362 124.05086 437.46292 130.78006 431.20898 125.91406 C 424.28136 121.21901 424.91939 111.0176 433.12305 95.3125 C 448.77776 65.342967 428.98655 33.326596 392.31055 65.876953 C 383.19115 61.021099 365.8268 60.406454 340.21875 64.037109 C 341.83105 35.954228 370.3885 25.424544 386.08594 21.746094 C 395.30687 19.585313 405.71131 18.378762 417.29883 18.126953 z M 416.08203 63.509766 C 422.91568 63.390671 428.46806 69.739188 426.62891 82.439453 C 425.06591 93.232781 421.60188 102.89646 416.23828 111.42773 C 410.87463 119.959 411.19463 126.86989 417.19727 132.1582 C 423.19988 137.44649 427.55859 142.61302 430.27344 147.66016 C 444.40131 186.3786 464.93766 202.32042 491.88281 195.48242 C 518.82801 188.64443 523.79578 211.27009 524.14648 265.72852 C 524.49181 319.35375 538.96447 364.63146 542.14648 403.86523 L 443.68359 425.5957 C 440.9037 344.28274 408.11397 316.04632 390.83984 293.18359 C 373.56567 270.32089 360.82962 254.73253 352.625 246.41797 C 344.42035 238.10342 352.77885 230.78219 377.70312 224.45703 C 401.9538 218.30284 410.37728 205.58823 402.97656 186.31445 C 395.57581 167.04074 384.64161 161.39356 370.17383 169.36719 C 355.70605 177.34082 348.1112 174.24624 347.38672 160.08984 C 354.60536 151.80483 356.44261 147.03872 352.89844 145.78711 C 349.35425 144.53551 343.45567 144.5988 335.20117 145.97656 C 334.84912 141.76383 330.28886 139.33449 321.52148 138.69141 C 323.81308 119.4675 327.05022 105.38205 331.23242 96.433594 C 337.7876 91.184975 345.53436 89.218388 354.47266 90.535156 C 363.41094 91.851893 372.09209 92.159208 380.51758 91.455078 L 377.96875 85.648438 C 373.25332 86.845089 366.38313 86.616462 357.35938 84.962891 C 348.3356 83.309319 340.54739 85.10688 333.99219 90.355469 C 334.64548 84.4536 335.64143 79.898782 336.97852 76.691406 C 357.86104 71.391953 376.23566 71.747944 392.10156 77.759766 C 393.30836 85.340625 396.17045 84.613998 400.68945 75.580078 C 404.67751 67.607538 410.76697 63.602395 416.08203 63.509766 z M 416.32617 67.001953 C 414.50831 67.032525 412.33468 67.916726 409.89648 69.480469 C 400.06053 75.788895 395.50216 93.619893 399.76367 99.476562 C 396.90839 102.35219 395.56887 105.56048 395.75 109.09961 C 395.9311 112.63868 398.04494 114.61056 402.0918 115.01758 C 406.13864 115.42464 410.50919 111.44823 415.19922 103.08789 C 419.93459 93.927153 427.31868 78.422439 419.87891 68.560547 C 418.93786 67.470512 417.74006 66.978175 416.32617 67.001953 z M 414.4375 75.107422 C 419.07933 74.881413 418.33604 84.156468 414.90234 91.333984 C 412.55994 96.230489 410.42449 99.819153 408.49414 102.10156 C 406.56381 104.38399 406.26563 103.20455 407.59766 98.564453 C 408.92968 93.924353 408.41708 92.621299 406.06445 94.652344 C 403.71183 96.683396 402.73945 95.673781 403.14648 91.626953 C 404.26073 80.549365 408.24367 76.776315 413.4375 75.283203 C 413.79562 75.180251 414.12804 75.122489 414.4375 75.107422 z M 349.64648 94.134766 C 348.00044 94.146468 346.45331 94.307828 345.00586 94.619141 C 341.53199 95.366271 338.62881 96.975771 336.29883 99.449219 L 331.77539 107.05078 L 333.3125 113.11328 L 336.84375 110.06641 C 347.64217 113.06212 358.08195 110.41235 368.16602 102.11719 L 379.53906 100.30859 L 378.25586 95.253906 L 367.14062 98.076172 C 360.41516 95.41364 354.58462 94.099659 349.64648 94.134766 z M 352.22461 98.634766 L 363.61133 101.12109 C 359.74052 102.82042 356.20696 104.4345 353.00977 105.96289 C 355.19145 103.25818 354.92933 100.8164 352.22461 98.634766 z M 343.88672 99.675781 C 342.3787 102.20951 342.97696 104.56637 345.68164 106.74805 C 342.81617 106.75825 340.28558 106.68235 338.09375 106.52148 C 338.7572 103.48508 340.68952 101.20417 343.88672 99.675781 z M 401.30078 105.54102 C 405.85541 106.5362 407.12322 108.00555 405.10742 109.95117 C 403.09166 111.89673 401.53461 112.11079 400.43359 110.59766 C 399.33259 109.08456 399.62181 107.40116 401.30078 105.54102 z M 349.24414 147.39453 C 349.66417 147.42326 349.68711 147.54566 349.61914 147.69336 L 334.71875 152.55078 C 332.48347 153.11805 330.8092 150.31612 336.98047 148.75 C 339.84595 148.7398 343.02685 148.17823 346.48047 147.66016 C 348.00516 147.43145 348.82411 147.3658 349.24414 147.39453 z M 350.13086 149.71484 C 349.43534 152.89733 344.17453 156.36522 339.54492 158.85547 C 336.45408 159.54126 336.74702 157.49128 337.50977 155.07031 L 350.13086 149.71484 z M 547.84766 427.00977 C 558.55608 458.48962 565.30616 488.49375 547.93164 528.80273 L 571.9082 664.32422 L 399.89844 664.32422 L 442.64062 452.70117 L 547.84766 427.00977 z " />
</svg>
